X:2
%%scale 0.7
%%newpage 1
T:Fantasy \`a 5 (VdGS Anon No.1607)
C:Anon
L:1/4
M:4/2
P:Treble I
%%measurenb 0
%%squarebreve
K:C clef=treble
e4 f2 d2 |e>f g a d f e2 | d4 z4 |z4 z e e e| f g a3 g/f/ e2 |
d c/B/ A B ^c d e f | d2 e2 d2 ^f2 | g3 f e2 f2 | d4 ^c2 e e/e/ |e A c d/e/ f3 e |
d3 c2 B/A/ G c |_B A2 G2 F E e |^c d e E ^F G A2 | B c c B c _B/A/ G/F/ G | F  f f e f d2 ^c |
d c/B/ A A e d/c/ B/A/ B | A2 e3 e f g | a2 d3 d d f | e f2 e f2 e g | f a g f e2 ^c d |
e ^c d B c d B =c | A6 G2 | A4 ^F4 | ^G2 A4 G2 | A4 z4 |z8 |
z4 z2 A2-| A E F D d3 A | c B c d B c B2 | A4 A4-| A4 ^G3 A | B2 A2 ^G2 B2-|
B A G2 ^F4 | E2 e4 B2 | c A e ^f g =f d2 | e4 z4 | e3 ^f ^g4 | a2 f2 e2 g2-| 
g2 f2 e4 | d4 z2 d2-|d e ^f2 g2 e2 |e8 | z2 a3 d f2-|f e f g e4 |
d4 z4 |z4 A B c B/A/ |B ^c d2  z4 | d e f e/d/ e ^f g2-| g f e4 d2-| d2 c3 B/A/ G2-|
G2 A2 A4 | Z2 | z2 z e f g a2-| a d e f g3 c |
d e f2 e4 | d2 f4 e2-| e d2 c2 _B A2 | A4 z4 |
z8 | z4 z2 z  e | f g a3 d e f |[M:6/2] g3 c d e f2 e4 |[M:4/2] d8 |] 

